public/assets/icons/fb.svg

<?xml version="1.0"?>
<svg xmlns="http://www.w3.org/2000/svg" xmlns:xlink="http://www.w3.org/1999/xlink" xmlns:svgjs="http://svgjs.com/svgjs" version="1.1" width="512" height="512" x="0" y="0" viewBox="0 0 512 512" style="enable-background:new 0 0 512 512" xml:space="preserve" class=""><g><path xmlns="http://www.w3.org/2000/svg" d="m426.578125 75.421875h-67.320313c-52.402343 0-95.035156 42.632813-95.035156 95.035156v56.816407h-53.273437c-5.519531 0-10 4.476562-10 10v76.9375c0 5.523437 4.480469 10 10 10h53.273437v167.789062h-234.222656c-5.515625 0-10-4.484375-10-10v-452c0-5.515625 4.484375-10 10-10h20c5.523438 0 10-4.476562 10-10s-4.476562-10-10-10h-20c-16.542969 0-30 13.457031-30 30v452c0 16.542969 13.457031 30 30 30h244.222656c5.523438 0 10-4.476562 10-10v-187.789062c0-5.523438-4.476562-10-10-10h-53.269531v-56.941407h53.269531c5.523438 0 10-4.476562 10-10v-66.8125c0-41.375 33.660156-75.039062 75.039063-75.039062h57.320312v56.9375h-57.320312c-9.8125 0-18.101563 8.289062-18.101563 18.101562v66.8125c0 5.523438 4.476563 10 10 10h64.019532l-7.492188 56.941407h-56.527344c-5.519531 0-10 4.476562-10 10v187.789062c0 5.523438 4.480469 10 10 10h30.839844c5.523438 0 10-4.476562 10-10s-4.476562-10-10-10h-20.839844v-167.789062h55.296875c5.019531 0 9.261719-3.722657 9.914063-8.695313l10.125-76.941406c.375-2.851563-.496094-5.730469-2.394532-7.894531-1.898437-2.167969-4.640624-3.40625-7.519531-3.40625h-65.417969v-54.914063h65.417969c5.523438 0 10-4.476563 10-10v-76.9375c-.003906-5.523437-4.480469-10-10.003906-10zm0 0" fill="#40e0d0" data-original="#000000" style="" class=""/><path xmlns="http://www.w3.org/2000/svg" d="m482 0h-352c-5.523438 0-10 4.476562-10 10s4.476562 10 10 10h352c5.515625 0 10 4.484375 10 10v452c0 5.515625-4.484375 10-10 10h-20c-5.523438 0-10 4.476562-10 10s4.476562 10 10 10h20c16.542969 0 30-13.457031 30-30v-452c0-16.542969-13.457031-30-30-30zm0 0" fill="#40e0d0" data-original="#000000" style="" class=""/><path xmlns="http://www.w3.org/2000/svg" d="m422.003906 492h-.007812c-5.523438 0-9.996094 4.476562-9.996094 10s4.480469 10 10.003906 10c5.523438 0 10-4.476562 10-10s-4.476562-10-10-10zm0 0" fill="#40e0d0" data-original="#000000" style="" class=""/><path xmlns="http://www.w3.org/2000/svg" d="m90.003906 20c5.523438 0 10-4.476562 10-10s-4.476562-10-10-10h-.007812c-5.523438 0-9.996094 4.476562-9.996094 10s4.480469 10 10.003906 10zm0 0" fill="#40e0d0" data-original="#000000" style="" class=""/></g></svg>

<svg id="Layer_1" data-name="Layer 1" xmlns="http://www.w3.org/2000/svg" viewBox="0 0 512 512.042"><defs><style>.cls-1{fill:#40e0d0;}</style></defs><path class="cls-1" d="M426.578,75.422h-67.32a95.143,95.143,0,0,0-95.035,95.035v56.816H210.949a10,10,0,0,0-10,10v76.938a10,10,0,0,0,10,10h53.274V492H30a10.009,10.009,0,0,1-10-10V30A10.009,10.009,0,0,1,30,20H50c2.232,0,34.657.811,40.835-.173,9.111-1.45-7.639-5.24-7.639-8.531S99.681,2.279,90.537.086C84.287-.014,52.218,0,50,0H30A30.033,30.033,0,0,0,0,30V482a30.033,30.033,0,0,0,30,30H274.223a10,10,0,0,0,10-10V314.211a10,10,0,0,0-10-10h-53.27V247.27h53.27a10,10,0,0,0,10-10V170.457a75.124,75.124,0,0,1,75.039-75.039h57.32v56.937h-57.32a18.344,18.344,0,0,0-18.1,18.1V237.27a10,10,0,0,0,10,10h64.02l-7.492,56.941H351.16a10,10,0,0,0-10,10V502a10,10,0,0,0,10,10H382c2.311,0,32.149-.029,40.11-.029,9.751-1.936-3.98-7.136-3.98-10.349,0-3.5,14.259-8.011,3.847-9.686-6.014-.967-37.955.064-39.977.064H361.16V324.211h55.3a10,10,0,0,0,9.914-8.695L436.5,238.574a10,10,0,0,0-9.914-11.3H361.164V172.359h65.418a10,10,0,0,0,10-10V85.422A10,10,0,0,0,426.578,75.422Z" transform="translate(0 0.001)"/><path class="cls-1" d="M482,0H130c-1.684,0-35-.014-39.463.086-9.984,1.707,6.349,6.18,6.349,10.019,0,3.25-17.222,8.025-8.234,9.821,5.754.4,39.074.074,41.348.074H482a10.009,10.009,0,0,1,10,10V482a10.009,10.009,0,0,1-10,10H462c-1.534,0-39.241-.949-43.605-.329-11.347,1.611,6.1,6.36,6.1,10.349,0,3.367-17.429,7.747-6.9,9.553,6.767.664,42.245.427,44.4.427h20a30.033,30.033,0,0,0,30-30V30A30.033,30.033,0,0,0,482,0Z" transform="translate(0 0.001)"/><path class="cls-1" d="M422,492H422a10,10,0,1,0,.008,0Z" transform="translate(0 0.001)"/><path class="cls-1" d="M90,20A10,10,0,0,0,90,0H90A10,10,0,0,0,90,20Z" transform="translate(0 0.001)"/></svg>
